icons/boxing-fill.svg

<svg viewBox="0 0 24 24" fill="currentColor" xmlns="http://www.w3.org/2000/svg">
    <path d="M9.501 11L9.64546 11.0069C10.3586 11.075 10.926 11.6424 10.9941 12.3555L11.001 12.5L10.9941 12.6445C10.926 13.3576 10.3586 13.925 9.64546 13.9931L9.501 14H6.001V16H9.501C11.2009 16 12.6178 14.7881 12.9348 13.1811L12.9654 13.0009L19.001 13C19.7123 13 20.3889 12.8515 21.0015 12.5837L21.001 17C21.001 18.3059 20.1666 19.4169 19.0019 19.829L19.001 21C19.001 21.5523 18.5533 22 18.001 22H6.001C5.44872 22 5.001 21.5523 5.001 21L5.00109 19.8293C3.83585 19.4175 3.001 18.3063 3.001 17V13C3.001 11.8954 3.89643 11 5.001 11H9.501ZM22.001 7.5V8L21.9959 8.17627C21.908 9.69275 20.6938 10.907 19.1773 10.9949L19.001 11H12.6642C12.1305 9.87663 11.0161 9.08266 9.70894 9.00607L9.501 9H5.001C4.27201 9 3.58857 9.19501 3 9.53571L3.001 6C3.001 3.79086 4.79186 2 7.001 2H16.501C19.5386 2 22.001 4.46243 22.001 7.5Z"/>
</svg>

<svg xmlns="http://www.w3.org/2000/svg" viewBox="0 0 24 24">
    <g>
        <path fill="none" d="M0 0h24v24H0z"/>
        <path fill-rule="nonzero" d="M9.5 11l.144.007a1.5 1.5 0 0 1 1.35 1.349L11 12.5l-.007.144a1.5 1.5 0 0 1-1.349 1.35L9.5 14H6v2h3.5c1.7 0 3.117-1.212 3.434-2.819l.03-.18L19 13c.711 0 1.388-.149 2-.416V17a3.001 3.001 0 0 1-2 2.829V21a1 1 0 0 1-1 1H6a1 1 0 0 1-1-1v-1.17A3.001 3.001 0 0 1 3 17v-4a2 2 0 0 1 2-2h4.5zM22 7.5V8l-.005.176a3 3 0 0 1-2.819 2.819L19 11h-6.337a3.501 3.501 0 0 0-2.955-1.994L9.5 9H5c-.729 0-1.412.195-2.001.536L3 6a4 4 0 0 1 4-4h9.5A5.5 5.5 0 0 1 22 7.5z"/>
    </g>
</svg>
